X:1
T:Title
%%score { 1 | ( 2 3 ) }
L:1/8
M:6/8
K:C
V:1 treble nm="Grand Piano"
V:2 bass 
V:3 bass 
V:1
 z3 z2[Q:1/4=100] [EG] | [EG][EG][EG] [CE][DF][EG] | [FA][EG][_E^F] [=EG]2 [Ec] | %3
 BBB [FA][FA][FB] | [Fd][Ec][FA] [EG]2 [EG] | [EG][EG][EG] [CE][DF][EG] | %6
 [FA][EG][_E^F] [=EG]2 [EG] | AAA d[Ac]A | GAB [Ec]3 | [Ge]3 [Ge][Fd][Ec] | [EG]3 [Ec]3 | d3 dcd | %12
 e3 [EGc]3 | [CAc]3 [Ac][GB][FA] | [EG]3 [Ec]2 [Ec] | B>BB [DB][Ec][Fd] | %16
[M:5/8] [Ec]-[Ec]- [Ec]3 |] %17
V:2
 z3 z2 [C,C] | [C,C][C,C][C,C] [C,G,][C,G,][C,C] | [C,C][C,C][C,C] [C,C]2 [C,G,] | %3
 [G,D][G,D][G,D] [G,,G,][G,,G,][G,,G,] | [C,G,][C,G,][C,C] [C,C]2 [C,C] | %5
 [C,C][C,C][C,C] [C,G,]2 [C,C] | [C,C][C,C][C,C] [C,C]2 [C,C] | %7
 [F,CF][F,CF][F,CF] [F,A,F][F,C][K:treble][F,CF] | [G,B,F][G,DF][G,DF][K:bass] [C,C]3 | %9
 [C,C]3 [C,C]2 [C,G,] | [C,C]3 [C,G,]3 | [G,B,G]3 [G,G]-[G,A,G][G,B,G] | [CG]3[K:bass] C,3 | %13
 F,3 [F,C]2 [F,C] | [C,C]3 [C,G,]2 [C,G,] | [G,D]>[G,D][G,D] [G,,G,][G,,G,][G,,G,] | %16
[M:5/8] [C,G,]-[C,G,]- [C,G,]3 |] %17
V:3
 x6 | x6 | x6 | x6 | x6 | x6 | x6 | x5[K:treble] x | x3[K:bass] x3 | x6 | x6 | z3 .B,3 | %12
 x3[K:bass] x3 | x6 | x6 | x6 |[M:5/8] x5 |] %17

